SVG_Azure_Grouped/Security/Azure Firewall IDPS.svg

<?xml version="1.0" encoding="UTF-8" standalone="no"?>
<!-- Generated by Microsoft Visio, SVG Export Azure Firewall IDPS.svg Page-1 -->

<svg
   xmlns:dc="http://purl.org/dc/elements/1.1/"
   xmlns:cc="http://creativecommons.org/ns#"
   xmlns:rdf="http://www.w3.org/1999/02/22-rdf-syntax-ns#"
   xmlns:svg="http://www.w3.org/2000/svg"
   xmlns="http://www.w3.org/2000/svg"
   xmlns:sodipodi="http://sodipodi.sourceforge.net/DTD/sodipodi-0.dtd"
   xmlns:inkscape="http://www.inkscape.org/namespaces/inkscape"
   width="0.62985766in"
   height="0.78734052in"
   viewBox="0 0 45.349495 56.688828"
   xml:space="preserve"
   class="st6"
   version="1.1"
   id="svg45"
   sodipodi:docname="Azure Firewall IDPS.svg"
   style="font-size:12px;overflow:visible;color-interpolation-filters:sRGB;fill:none;fill-rule:evenodd;stroke-linecap:square;stroke-miterlimit:3"
   inkscape:version="0.92.5 (2060ec1f9f, 2020-04-08)"><metadata
   id="metadata49"><rdf:RDF><cc:Work
       rdf:about=""><dc:format>image/svg+xml</dc:format><dc:type
         rdf:resource="http://purl.org/dc/dcmitype/StillImage" /></cc:Work></rdf:RDF></metadata><sodipodi:namedview
   pagecolor="#ffffff"
   bordercolor="#666666"
   borderopacity="1"
   objecttolerance="10"
   gridtolerance="10"
   guidetolerance="10"
   inkscape:pageopacity="0"
   inkscape:pageshadow="2"
   inkscape:window-width="640"
   inkscape:window-height="480"
   id="namedview47"
   showgrid="false"
   inkscape:zoom="1.4193119"
   inkscape:cx="30.235832"
   inkscape:cy="37.78463"
   inkscape:window-x="0"
   inkscape:window-y="0"
   inkscape:window-maximized="0"
   inkscape:current-layer="svg45" />
	<style
   type="text/css"
   id="style2">
	<![CDATA[
		.st1 {fill:#37c2b1;stroke:none;stroke-linecap:butt;stroke-width:34}
		.st2 {fill:url(#grad0-8);stroke:none;stroke-linecap:butt;stroke-width:34}
		.st3 {fill:#ffffff;stroke:none;stroke-linecap:butt;stroke-width:34}
		.st4 {fill:#ffffff;fill-opacity:0.8;stroke:none;stroke-linecap:butt;stroke-width:34}
		.st5 {fill:#ffffff;fill-opacity:0.9;stroke:none;stroke-linecap:butt;stroke-width:34}
		.st6 {fill:none;fill-rule:evenodd;font-size:12px;overflow:visible;stroke-linecap:square;stroke-miterlimit:3}
	]]>
	</style>

	<defs
   id="Patterns_And_Gradients">
		<linearGradient
   id="grad0-8"
   x1="-2.6074091e-05"
   y1="65.010924"
   x2="46.509024"
   y2="65.010924"
   gradientTransform="scale(0.89423555,1.1182736)"
   gradientUnits="userSpaceOnUse">
			<stop
   offset="0"
   stop-color="#37c2b1"
   stop-opacity="1"
   id="stop4" />
			<stop
   offset="1"
   stop-color="#258277"
   stop-opacity="1"
   id="stop6" />
		</linearGradient>
	</defs>
	<g
   id="g43"
   transform="translate(-34.000633,-34.0043)">
		<title
   id="title10">Page-1</title>
		<g
   id="group16992-1"
   transform="translate(34,-34.0157)">
			<title
   id="title12">Azure Firewall IDPS.16992</title>
			<g
   id="group16993-2">
				<title
   id="title14">Sheet.16993</title>
				<g
   id="shape16994-3">
					<title
   id="title16">Sheet.16994</title>
					<path
   d="m 45.35,94.48 c 0,15.25 -18.01,27.52 -21.92,30.01 a 1.42213,1.45527 0 0 1 -1.5,0 C 18.01,122 0,109.73 0,94.48 V 76.15 A 1.42829,1.46157 0 0 1 1.39,74.7 c 14.01,-0.38 10.79,-6.68 21.29,-6.68 10.5,0 7.26,6.3 21.27,6.68 a 1.42829,1.46157 0 0 1 1.4,1.45 z"
   class="st1"
   id="path18"
   inkscape:connector-curvature="0"
   style="fill:#37c2b1;stroke:none;stroke-width:34;stroke-linecap:butt" />
				</g>
				<g
   id="shape16995-5"
   transform="translate(1.88386,-2.32887)">
					<title
   id="title21">Sheet.16995</title>
					<path
   d="m 41.59,96.98 c 0,13.99 -16.52,25.24 -20.11,27.53 a 1.299,1.32928 0 0 1 -1.37,0 C 16.51,122.22 0,110.96 0,96.98 V 80.16 a 1.30208,1.33243 0 0 1 1.27,-1.34 c 12.85,-0.35 9.89,-6.12 19.52,-6.12 9.63,0 6.67,5.77 19.52,6.12 a 1.30208,1.33243 0 0 1 1.28,1.34 z"
   class="st2"
   id="path23"
   inkscape:connector-curvature="0"
   style="fill:url(#grad0-8);stroke:none;stroke-width:34;stroke-linecap:butt" />
				</g>
				<g
   id="shape16996-9"
   transform="translate(6.9506,-35.6481)">
					<title
   id="title26">Sheet.16996</title>
					<path
   d="m 2.87,116.16 a 2.41332,2.46956 -180 0 0 -2.13,1.12 5.83013,5.96599 -180 0 0 -0.74,3.32 5.27605,5.399 -180 0 0 0.71,3.05 2.26556,2.31836 -180 0 0 1.97,1.06 2.42255,2.47901 -180 0 0 2.11,-1.11 5.45766,5.58485 -180 0 0 0.75,-3.2 c 0,-2.83 -0.89,-4.24 -2.67,-4.24 z m -0.07,7.49 c -0.96,0 -1.45,-1.04 -1.45,-3.11 0,-2.21 0.49,-3.32 1.48,-3.32 0.92,0 1.39,1.09 1.39,3.27 -0.01,2.11 -0.49,3.16 -1.42,3.16 z m 7.48,-7.54 h 0.55 v 8.46 H 9.52 v -6.82 a 4.05708,4.15163 0 0 1 -0.77,0.44 5.89785,6.03529 0 0 1 -0.92,0.31 v -1.13 c 0.22,-0.08 0.43,-0.15 0.62,-0.23 0.18,-0.09 0.4,-0.17 0.61,-0.27 0.21,-0.11 0.4,-0.22 0.62,-0.34 0.22,-0.12 0.38,-0.27 0.6,-0.42 z m 6.03,0 h 0.55 v 8.46 h -1.31 v -6.82 a 4.05708,4.15163 0 0 1 -0.76,0.44 5.89785,6.03529 0 0 1 -0.93,0.31 v -1.13 a 10.7891,11.0406 -180 0 0 1.25,-0.5 c 0.21,-0.11 0.39,-0.22 0.6,-0.34 0.2,-0.12 0.39,-0.27 0.6,-0.42 z m 6.43,0.05 a 2.41024,2.46641 -180 0 0 -2.13,1.12 5.83013,5.96599 -180 0 0 -0.74,3.32 5.25142,5.3738 -180 0 0 0.7,3.05 2.25633,2.30891 -180 0 0 1.97,1.06 2.42871,2.48531 -180 0 0 2.11,-1.11 5.46074,5.588 -180 0 0 0.75,-3.2 c 0,-2.83 -0.89,-4.24 -2.66,-4.24 z m -0.09,7.49 c -0.97,0 -1.45,-1.04 -1.45,-3.11 0,-2.21 0.49,-3.32 1.47,-3.32 0.93,0 1.4,1.09 1.4,3.27 0,2.11 -0.48,3.16 -1.42,3.16 z m 8.04,-7.54 v 8.46 h -1.31 v -6.82 a 4.12788,4.22408 0 0 1 -0.76,0.44 6.1164,6.25894 0 0 1 -0.92,0.31 v -1.13 a 10.7891,11.0406 -180 0 0 1.24,-0.5 7.40925,7.58192 -180 0 0 1.22,-0.76 z"
   class="st3"
   id="path28"
   inkscape:connector-curvature="0"
   style="fill:#ffffff;stroke:none;stroke-width:34;stroke-linecap:butt" />
				</g>
				<g
   id="shape16997-11"
   transform="translate(13.9104,-11.8913)">
					<title
   id="title31">Sheet.16997</title>
					<path
   d="m 2.43,116.11 h 0.56 v 8.46 h -1.3 v -6.82 A 4.12788,4.22408 0 0 1 0.92,118.19 6.04868,6.18964 0 0 1 0,118.5 v -1.14 a 10.8969,11.1508 -180 0 0 1.25,-0.5 c 0.21,-0.1 0.4,-0.21 0.6,-0.33 0.2,-0.13 0.37,-0.26 0.58,-0.42 z m 5.41,0.42 c -0.2,0.12 -0.4,0.23 -0.59,0.34 -0.2,0.1 -0.4,0.18 -0.62,0.27 -0.22,0.08 -0.42,0.15 -0.63,0.23 v 1.14 a 6.04868,6.18964 -180 0 0 0.92,-0.32 4.12788,4.22408 -180 0 0 0.76,-0.44 v 6.83 h 1.31 v -8.47 H 8.46 c -0.21,0.16 -0.42,0.3 -0.62,0.42 z m 9.72,3.87 a 5.46074,5.588 0 0 1 -0.75,3.2 2.42255,2.47901 0 0 1 -2.11,1.11 2.25941,2.31206 0 0 1 -1.97,-1.06 5.27605,5.399 0 0 1 -0.71,-3.05 5.83013,5.96599 0 0 1 0.74,-3.32 2.41332,2.46956 0 0 1 2.14,-1.12 c 1.77,0 2.66,1.41 2.66,4.24 z m -1.33,0.09 c 0,-2.18 -0.47,-3.27 -1.4,-3.27 -0.98,0 -1.47,1.11 -1.47,3.32 0,2.07 0.48,3.11 1.44,3.11 0.97,0 1.44,-1.05 1.43,-3.16 z"
   class="st4"
   id="path33"
   inkscape:connector-curvature="0"
   style="fill:#ffffff;fill-opacity:0.8;stroke:none;stroke-width:34;stroke-linecap:butt" />
				</g>
				<g
   id="shape16998-13"
   transform="translate(10.0011,-23.7728)">
					<title
   id="title36">Sheet.16998</title>
					<path
   d="M 2.44,116.11 H 3 v 8.46 H 1.69 v -6.82 A 4.32796,4.42882 0 0 1 0.92,118.19 6.48579,6.63693 0 0 1 0,118.51 v -1.14 c 0.22,-0.07 0.43,-0.15 0.63,-0.23 a 6.46424,6.61488 -180 0 0 0.62,-0.27 c 0.19,-0.1 0.39,-0.21 0.59,-0.34 0.2,-0.12 0.39,-0.26 0.6,-0.42 z m 9.1,4.29 a 5.45766,5.58485 0 0 1 -0.75,3.2 2.42255,2.47901 0 0 1 -2.11,1.11 2.26556,2.31836 0 0 1 -1.97,-1.06 5.27605,5.399 0 0 1 -0.71,-3.05 5.83013,5.96599 0 0 1 0.74,-3.32 2.41332,2.46956 0 0 1 2.13,-1.12 c 1.78,0 2.67,1.41 2.67,4.24 z m -1.34,0.09 c 0,-2.18 -0.46,-3.26 -1.39,-3.26 -0.98,0 -1.47,1.1 -1.47,3.31 0,2.07 0.48,3.11 1.44,3.11 0.96,0 1.44,-1.05 1.43,-3.16 z m 5.45,-3.96 c -0.2,0.13 -0.4,0.24 -0.59,0.34 -0.2,0.1 -0.4,0.19 -0.62,0.27 -0.22,0.08 -0.41,0.16 -0.63,0.23 v 1.14 a 6.23953,6.38494 -180 0 0 0.92,-0.31 4.24793,4.34692 -180 0 0 0.77,-0.45 v 6.83 h 1.31 v -8.47 h -0.56 c -0.19,0.16 -0.4,0.3 -0.6,0.42 z m 9.72,3.87 a 5.46074,5.588 0 0 1 -0.75,3.2 2.42871,2.48531 0 0 1 -2.11,1.11 2.25941,2.31206 0 0 1 -1.97,-1.06 5.27605,5.399 0 0 1 -0.71,-3.05 5.83013,5.96599 0 0 1 0.74,-3.32 2.41024,2.46641 0 0 1 2.13,-1.12 c 1.78,0 2.67,1.41 2.67,4.24 z m -1.34,0.09 c 0,-2.18 -0.46,-3.26 -1.39,-3.26 -0.98,0 -1.47,1.1 -1.47,3.31 0,2.07 0.48,3.11 1.44,3.11 0.96,0 1.44,-1.05 1.42,-3.16 z"
   class="st5"
   id="path38"
   inkscape:connector-curvature="0"
   style="fill:#ffffff;fill-opacity:0.9;stroke:none;stroke-width:34;stroke-linecap:butt" />
				</g>
			</g>
		</g>
	</g>
</svg>

<?xml version="1.0" encoding="UTF-8" standalone="no"?>
<!DOCTYPE svg PUBLIC "-//W3C//DTD SVG 1.1//EN" "http://www.w3.org/Graphics/SVG/1.1/DTD/svg11.dtd">
<!-- Generated by Microsoft Visio, SVG Export Azure Firewall IDPS.svg Page-1 -->
<svg xmlns="http://www.w3.org/2000/svg" xmlns:xlink="http://www.w3.org/1999/xlink" xmlns:ev="http://www.w3.org/2001/xml-events"
		width="1.57437in" height="1.73206in" viewBox="0 0 113.354 124.709" xml:space="preserve" color-interpolation-filters="sRGB"
		class="st6">
	<style type="text/css">
	<![CDATA[
		.st1 {fill:#37c2b1;stroke:none;stroke-linecap:butt;stroke-width:34}
		.st2 {fill:url(#grad0-8);stroke:none;stroke-linecap:butt;stroke-width:34}
		.st3 {fill:#ffffff;stroke:none;stroke-linecap:butt;stroke-width:34}
		.st4 {fill:#ffffff;fill-opacity:0.8;stroke:none;stroke-linecap:butt;stroke-width:34}
		.st5 {fill:#ffffff;fill-opacity:0.9;stroke:none;stroke-linecap:butt;stroke-width:34}
		.st6 {fill:none;fill-rule:evenodd;font-size:12px;overflow:visible;stroke-linecap:square;stroke-miterlimit:3}
	]]>
	</style>

	<defs id="Patterns_And_Gradients">
		<linearGradient id="grad0-8" x1="0" y1="0" x2="1" y2="0" gradientTransform="rotate(90 0.5 0.5)">
			<stop offset="0" stop-color="#37c2b1" stop-opacity="1"/>
			<stop offset="1" stop-color="#258277" stop-opacity="1"/>
		</linearGradient>
	</defs>
	<g>
		<title>Page-1</title>
		<g id="group16599-1" transform="translate(34,-34.0157)">
			<title>Azure Firewall IDPS.16599</title>
			<g id="group16600-2">
				<title>Sheet.16600</title>
				<g id="shape16601-3">
					<title>Sheet.16601</title>
					<path d="M45.35 94.48 C45.35 109.73 27.34 122 23.43 124.49 A1.42213 1.45527 0 0 1 21.93 124.49 C18.01 122 0 109.73
								 0 94.48 L0 76.15 A1.42829 1.46157 0 0 1 1.39 74.7 C15.4 74.32 12.18 68.02 22.68 68.02 C33.18 68.02
								 29.94 74.32 43.95 74.7 A1.42829 1.46157 0 0 1 45.35 76.15 L45.35 94.48 Z" class="st1"/>
				</g>
				<g id="shape16602-5" transform="translate(1.88386,-2.32887)">
					<title>Sheet.16602</title>
					<path d="M41.59 96.98 C41.59 110.97 25.07 122.22 21.48 124.51 A1.299 1.32928 0 0 1 20.11 124.51 C16.51 122.22
								 0 110.96 0 96.98 L0 80.16 A1.30208 1.33243 0 0 1 1.27 78.82 C14.12 78.47 11.16 72.7 20.79 72.7 C30.42
								 72.7 27.46 78.47 40.31 78.82 A1.30208 1.33243 0 0 1 41.59 80.16 L41.59 96.98 Z" class="st2"/>
				</g>
				<g id="shape16603-9" transform="translate(6.9506,-35.6481)">
					<title>Sheet.16603</title>
					<path d="M2.87 116.16 A2.41332 2.46956 -180 0 0 0.74 117.28 A5.83013 5.96599 -180 0 0 -0 120.6 A5.27605 5.399
								 -180 0 0 0.71 123.65 A2.26556 2.31836 -180 0 0 2.68 124.71 A2.42255 2.47901 -180 0 0 4.79 123.6
								 A5.45766 5.58485 -180 0 0 5.54 120.4 C5.54 117.57 4.65 116.16 2.87 116.16 ZM2.8 123.65 C1.84 123.65
								 1.35 122.61 1.35 120.54 C1.35 118.33 1.84 117.22 2.83 117.22 C3.75 117.22 4.22 118.31 4.22 120.49
								 C4.21 122.6 3.73 123.65 2.8 123.65 ZM10.28 116.11 L10.83 116.11 L10.83 124.57 L9.52 124.57 L9.52
								 117.75 A4.05708 4.15163 0 0 1 8.75 118.19 A5.89785 6.03529 0 0 1 7.83 118.5 L7.83 117.37 C8.05 117.29
								 8.26 117.22 8.45 117.14 C8.63 117.05 8.85 116.97 9.06 116.87 C9.27 116.76 9.46 116.65 9.68 116.53
								 C9.9 116.41 10.06 116.26 10.28 116.11 ZM16.31 116.11 L16.86 116.11 L16.86 124.57 L15.55 124.57 L15.55
								 117.75 A4.05708 4.15163 0 0 1 14.79 118.19 A5.89785 6.03529 0 0 1 13.86 118.5 L13.86 117.37 A10.7891
								 11.0406 -180 0 0 15.11 116.87 C15.32 116.76 15.5 116.65 15.71 116.53 C15.91 116.41 16.1 116.26 16.31
								 116.11 ZM22.74 116.16 A2.41024 2.46641 -180 0 0 20.61 117.28 A5.83013 5.96599 -180 0 0 19.87 120.6
								 A5.25142 5.3738 -180 0 0 20.57 123.65 A2.25633 2.30891 -180 0 0 22.54 124.71 A2.42871 2.48531 -180
								 0 0 24.65 123.6 A5.46074 5.588 -180 0 0 25.4 120.4 C25.4 117.57 24.51 116.16 22.74 116.16 ZM22.65
								 123.65 C21.68 123.65 21.2 122.61 21.2 120.54 C21.2 118.33 21.69 117.22 22.67 117.22 C23.6 117.22
								 24.07 118.31 24.07 120.49 C24.07 122.6 23.59 123.65 22.65 123.65 ZM30.69 116.11 L30.69 124.57 L29.38
								 124.57 L29.38 117.75 A4.12788 4.22408 0 0 1 28.62 118.19 A6.1164 6.25894 0 0 1 27.7 118.5 L27.7
								 117.37 A10.7891 11.0406 -180 0 0 28.94 116.87 A7.40925 7.58192 -180 0 0 30.16 116.11 L30.69 116.11
								 Z" class="st3"/>
				</g>
				<g id="shape16604-11" transform="translate(13.9104,-11.8913)">
					<title>Sheet.16604</title>
					<path d="M2.43 116.11 L2.99 116.11 L2.99 124.57 L1.69 124.57 L1.69 117.75 A4.12788 4.22408 0 0 1 0.92 118.19
								 A6.04868 6.18964 0 0 1 0 118.5 L0 117.36 A10.8969 11.1508 -180 0 0 1.25 116.86 C1.46 116.76 1.65
								 116.65 1.85 116.53 C2.05 116.4 2.22 116.27 2.43 116.11 ZM7.84 116.53 C7.64 116.65 7.44 116.76 7.25
								 116.87 C7.05 116.97 6.85 117.05 6.63 117.14 C6.41 117.22 6.21 117.29 6 117.37 L6 118.51 A6.04868
								 6.18964 -180 0 0 6.92 118.19 A4.12788 4.22408 -180 0 0 7.68 117.75 L7.68 124.58 L8.99 124.58 L8.99
								 116.11 L8.46 116.11 C8.25 116.27 8.04 116.41 7.84 116.53 ZM17.56 120.4 A5.46074 5.588 0 0 1 16.81
								 123.6 A2.42255 2.47901 0 0 1 14.7 124.71 A2.25941 2.31206 0 0 1 12.73 123.65 A5.27605 5.399 0 0
								 1 12.02 120.6 A5.83013 5.96599 0 0 1 12.76 117.28 A2.41332 2.46956 0 0 1 14.9 116.16 C16.67 116.16
								 17.56 117.57 17.56 120.4 ZM16.23 120.49 C16.23 118.31 15.76 117.22 14.83 117.22 C13.85 117.22 13.36
								 118.33 13.36 120.54 C13.36 122.61 13.84 123.65 14.8 123.65 C15.77 123.65 16.24 122.6 16.23 120.49
								 Z" class="st4"/>
				</g>
				<g id="shape16605-13" transform="translate(10.0011,-23.7728)">
					<title>Sheet.16605</title>
					<path d="M2.44 116.11 L3 116.11 L3 124.57 L1.69 124.57 L1.69 117.75 A4.32796 4.42882 0 0 1 0.92 118.19 A6.48579
								 6.63693 0 0 1 0 118.51 L0 117.37 C0.22 117.3 0.43 117.22 0.63 117.14 A6.46424 6.61488 -180 0 0 1.25
								 116.87 C1.44 116.77 1.64 116.66 1.84 116.53 C2.04 116.41 2.23 116.27 2.44 116.11 ZM11.54 120.4 A5.45766
								 5.58485 0 0 1 10.79 123.6 A2.42255 2.47901 0 0 1 8.68 124.71 A2.26556 2.31836 0 0 1 6.71 123.65
								 A5.27605 5.399 0 0 1 6 120.6 A5.83013 5.96599 0 0 1 6.74 117.28 A2.41332 2.46956 0 0 1 8.87 116.16
								 C10.65 116.16 11.54 117.57 11.54 120.4 ZM10.2 120.49 C10.2 118.31 9.74 117.23 8.81 117.23 C7.83
								 117.23 7.34 118.33 7.34 120.54 C7.34 122.61 7.82 123.65 8.78 123.65 C9.74 123.65 10.22 122.6 10.21
								 120.49 L10.2 120.49 ZM15.65 116.53 C15.45 116.66 15.25 116.77 15.06 116.87 C14.86 116.97 14.66 117.06
								 14.44 117.14 C14.22 117.22 14.03 117.3 13.81 117.37 L13.81 118.51 A6.23953 6.38494 -180 0 0 14.73
								 118.2 A4.24793 4.34692 -180 0 0 15.5 117.75 L15.5 124.58 L16.81 124.58 L16.81 116.11 L16.25 116.11
								 C16.06 116.27 15.85 116.41 15.65 116.53 ZM25.37 120.4 A5.46074 5.588 0 0 1 24.62 123.6 A2.42871
								 2.48531 0 0 1 22.51 124.71 A2.25941 2.31206 0 0 1 20.54 123.65 A5.27605 5.399 0 0 1 19.83 120.6
								 A5.83013 5.96599 0 0 1 20.57 117.28 A2.41024 2.46641 0 0 1 22.7 116.16 C24.48 116.16 25.37 117.57
								 25.37 120.4 ZM24.03 120.49 C24.03 118.31 23.57 117.23 22.64 117.23 C21.66 117.23 21.17 118.33 21.17
								 120.54 C21.17 122.61 21.65 123.65 22.61 123.65 C23.57 123.65 24.05 122.6 24.03 120.49 Z"
							class="st5"/>
				</g>
			</g>
		</g>
	</g>
</svg>
